X: 6557
T: Cathedral Cove
R: waltz
M: 3/4
K: Adorian
|:A4 B2|F4 B2|E6-|E4 B2|d4 B2|A4 B2|
E6-|E6|G4 B2|d3 e dB|A4 F2|D4 e2|
c4 d2|B4 AG|A6-|1 A4 GE:|2 A4 AB||
|:cA dB ec|a4 f2|g6-|g6|BG dB cd|g4 a2|
f6-|f4 g2|f6-|f4 a2|g6-|g4 g2|
d4 e2|c4 d2|B4 AG|1 A4 AB:|2 A4 GE||

